icon-themes/colibre_svg/cmd/sc_mailmergeprintdocuments.svg

<svg viewBox="0 0 16 16" xmlns="http://www.w3.org/2000/svg"><path d="m1 1v14h5v-5c0-.554.446-1 1-1h1v-1h3v-7z" fill="#fff"/><path d="m1 0c-.554 0-1 .446-1 1v14c0 .554.446 1 1 1h6c-.554 0-1-.446-1-1h-5v-14h10v7h1v-7c0-.554-.446-1-1-1z" fill="#808080"/><path d="m8 11h7v3h-7z" fill="#fff"/><path d="m9 9v1h-1c-.554 0-1 .446-1 1v3c0 .554.446 1 1 1h1v1h1 3 1v-1h1c.554 0 1-.446 1-1v-3c0-.554-.446-1-1-1h-1v-1zm-1 2h1 5 1v3h-7zm4.476562 1c-.263719 0-.476562.212843-.476562.476562v.04688c0 .263715.212843.476558.476562.476558h1.046876c.263719 0 .476562-.212843.476562-.476562v-.04688c0-.263715-.212843-.476558-.476562-.476558z" fill="#4d82b8"/></svg>

<svg viewBox="0 0 16 16" xmlns="http://www.w3.org/2000/svg">
  <path
     style="fill:#ffffff"
     d="M 1 1 L 1 15 L 6 15 L 6 10 C 6 9.446 6.446 9 7 9 L 8 9 L 8 8 L 11 8 L 11 1 L 1 1 z "
     />
  <path
     style="fill:#808080"
     d="M 1 0 C 0.446 0 0 0.446 0 1 L 0 15 C 0 15.554 0.446 16 1 16 L 7 16 C 6.446 16 6 15.554 6 15 L 1 15 L 1 1 L 11 1 L 11 8 L 12 8 L 12 1 C 12 0.446 11.554 0 11 0 L 1 0 z "
     />
  <path
     style="fill:#ffffff"
     d="m 8,11 h 7 v 3 H 8 Z"
     />
  <path
     style="fill:#4d82b8"
     d="m 9,9 v 1 H 8 c -0.554,0 -1,0.446 -1,1 v 3 c 0,0.554 0.446,1 1,1 h 1 v 1 h 1 3 1 v -1 h 1 c 0.554,0 1,-0.446 1,-1 v -3 c 0,-0.554 -0.446,-1 -1,-1 H 14 V 9 Z m -1,2 h 1 5 1 v 3 H 8 Z m 4.476562,1 C 12.212843,12 12,12.212843 12,12.476562 v 0.04688 C 12,12.787157 12.212843,13 12.476562,13 h 1.046876 C 13.787157,13 14,12.787157 14,12.523438 v -0.04688 C 14,12.212843 13.787157,12 13.523438,12 Z"
     />
</svg>
